svg/u26f1.svg

<svg viewBox="0 0 128 128" xmlns="http://www.w3.org/2000/svg">
  <path d="M95.35,98.11c-22.99-1.44-29.19-6.9-52.33-6.9S3.84,96.74,3.84,96.74s-0.53,27.21,0,27.74 c0.53,0.53,119.89,0.18,120.42-0.53V96.74C124.26,96.74,117.97,99.53,95.35,98.11z" fill="#F5C876"/>
  <path d="M18.49,110.52c0,4.42,13.1,3.66,32,3.98c16.97,0.29,32.96,3,48.31,3.45 c10.47,0.31,19.56-1.34,20.21-2.49c2.5-4.44-26.68-13.07-52.82-14.84S18.49,105.57,18.49,110.52z" fill="#F2A159"/>
  <path d="M72.26,20.24l-4.42-2.16l-9,35.73c0,0-13.01,48.03-13.61,50.44c-0.77,3.09-0.67,4.93,2.06,5.57 c2.73,0.64,3.49-1.99,4.12-4.03c0.63-2.04,13.21-47.49,13.21-47.49L72.26,20.24z" fill="#4EA4B0"/>
  <path d="M70.86,13c0,0-22.89-6.43-43.32,3.57C11.06,24.62,5.02,36.58,5.77,37.03 c1.27,0.76,5.17,0.45,8.3,3.53c3.13,3.08,5.11,8.15,6.36,8.66c1.25,0.5,6.97-1.43,13.07,2.12s8.36,9.7,9.72,10.25 c1.36,0.55,8.43-3.48,16.96-0.53c7.78,2.69,12.87,7.99,13.96,8.3c1.09,0.32,6.53-4.37,15.55-3.53s11.39,3.6,12.54,4.06 c1.15,0.46,2.71-4.48,8.03-5.08c5.19-0.59,6.61,0.69,7.94,0.98c1.34,0.3,1.16-16.74-16.02-34.33C89.32,18.28,70.86,13,70.86,13z" fill="#EE5948"/>
  <path d="M71.15,15.36c0,0-14.84-3.23-31.04,8.34c-13.25,9.47-18.24,20.2-17.93,20.94 c0.31,0.73,6.09,0.26,11.73,3.14s8.83,9.21,9.52,8.32c0.87-1.12,4.11-13.57,9.46-22.37c10.03-16.5,18-17.49,18-17.49 s6.93,4.33,7.56,23.63c0.35,10.58-2.35,23.88-2.07,25.38c0.12,0.66,4.76-2.93,12.36-2.58c6.89,0.32,12.21,3.35,13.11,3.22 s-0.85-18.26-8.8-31.35C84.06,19.77,71.15,15.36,71.15,15.36z" fill="#FEFEFE"/>
  <path d="M74,5.44c-2.96-0.75-3.72,3.72-4.47,6.21c-0.34,1.1-1.75,5.29,1.16,6.2 c2.42,0.76,3.34-2.49,4.06-4.87C75.46,10.59,77.11,6.22,74,5.44z" fill="#4EA4B0"/>
</svg>

<svg viewBox="0 0 128 128" xmlns="http://www.w3.org/2000/svg">
  <defs/>
  <path d="M95.35,98.11 C72.36,96.67 66.16,91.21 43.02,91.21 C19.88,91.21 3.84,96.74 3.84,96.74 C3.84,96.74 3.31,123.95 3.84,124.48 C4.37,125.01 123.73,124.66 124.26,123.95 L124.26,96.74 C124.26,96.74 117.97,99.53 95.35,98.11 Z" fill="#F5C876"/>
  <path d="M18.49,110.52 C18.49,114.94 31.59,114.18 50.49,114.5 C67.46,114.79 83.45,117.5 98.8,117.95 C109.27,118.26 118.36,116.61 119.01,115.46 C121.51,111.02 92.33,102.39 66.19,100.62 C40.05,98.85 18.49,105.57 18.49,110.52 Z" fill="#F2A159"/>
  <path d="M72.26,20.24 L67.84,18.08 L58.84,53.81 C58.84,53.81 45.83,101.84 45.23,104.25 C44.46,107.34 44.56,109.18 47.29,109.82 C50.02,110.46 50.78,107.83 51.41,105.79 C52.04,103.75 64.62,58.3 64.62,58.3 L72.26,20.24 Z" fill="#4EA4B0"/>
  <path d="M70.86,13 C70.86,13 47.97,6.57 27.54,16.57 C11.06,24.62 5.02,36.58 5.77,37.03 C7.04,37.79 10.94,37.48 14.07,40.56 C17.2,43.64 19.18,48.71 20.43,49.22 C21.68,49.72 27.4,47.79 33.5,51.34 C39.6,54.89 41.86,61.04 43.22,61.59 C44.58,62.14 51.65,58.11 60.18,61.06 C67.96,63.75 73.05,69.05 74.14,69.36 C75.23,69.68 80.67,64.99 89.69,65.83 C98.71,66.67 101.08,69.43 102.23,69.89 C103.38,70.35 104.94,65.41 110.26,64.81 C115.45,64.22 116.87,65.5 118.2,65.79 C119.54,66.09 119.36,49.05 102.18,31.46 C89.32,18.28 70.86,13 70.86,13 Z" fill="#EE5948"/>
  <path d="M71.15,15.36 C71.15,15.36 56.31,12.13 40.11,23.7 C26.86,33.17 21.87,43.9 22.18,44.64 C22.49,45.37 28.27,44.9 33.91,47.78 C39.55,50.66 42.74,56.99 43.43,56.1 C44.3,54.98 47.54,42.53 52.89,33.73 C62.92,17.23 70.89,16.24 70.89,16.24 C70.89,16.24 77.82,20.57 78.45,39.87 C78.8,50.45 76.1,63.75 76.38,65.25 C76.5,65.91 81.14,62.32 88.74,62.67 C95.63,62.99 100.95,66.02 101.85,65.89 C102.75,65.76 101,47.63 93.05,34.54 C84.06,19.77 71.15,15.36 71.15,15.36 Z" fill="#FEFEFE"/>
  <path d="M74,5.44 C71.04,4.69 70.28,9.16 69.53,11.65 C69.19,12.75 67.78,16.94 70.69,17.85 C73.11,18.61 74.03,15.36 74.75,12.98 C75.46,10.59 77.11,6.22 74,5.44 Z" fill="#4EA4B0"/>
</svg>
